SVG_Azure_Grouped/Workload/Active Directory Rights Management Server.svg

<?xml version="1.0" encoding="UTF-8" standalone="no"?>
<!-- Generated by Microsoft Visio, SVG Export Active Directory Rights Management Server.svg Page-1 -->

<svg
   xmlns:dc="http://purl.org/dc/elements/1.1/"
   xmlns:cc="http://creativecommons.org/ns#"
   xmlns:rdf="http://www.w3.org/1999/02/22-rdf-syntax-ns#"
   xmlns:svg="http://www.w3.org/2000/svg"
   xmlns="http://www.w3.org/2000/svg"
   xmlns:sodipodi="http://sodipodi.sourceforge.net/DTD/sodipodi-0.dtd"
   xmlns:inkscape="http://www.inkscape.org/namespaces/inkscape"
   width="0.62993062in"
   height="0.7874043in"
   viewBox="0 0 45.354814 56.693"
   xml:space="preserve"
   class="st8"
   version="1.1"
   id="svg121"
   sodipodi:docname="Active Directory Rights Management Server.svg"
   style="font-size:12px;overflow:visible;color-interpolation-filters:sRGB;fill:none;fill-rule:evenodd;stroke-linecap:square;stroke-miterlimit:3"
   inkscape:version="0.92.5 (2060ec1f9f, 2020-04-08)"><metadata
   id="metadata125"><rdf:RDF><cc:Work
       rdf:about=""><dc:format>image/svg+xml</dc:format><dc:type
         rdf:resource="http://purl.org/dc/dcmitype/StillImage" /></cc:Work></rdf:RDF></metadata><sodipodi:namedview
   pagecolor="#ffffff"
   bordercolor="#666666"
   borderopacity="1"
   objecttolerance="10"
   gridtolerance="10"
   guidetolerance="10"
   inkscape:pageopacity="0"
   inkscape:pageshadow="2"
   inkscape:window-width="640"
   inkscape:window-height="480"
   id="namedview123"
   showgrid="false"
   inkscape:zoom="1.4181983"
   inkscape:cx="28.9299"
   inkscape:cy="37.855143"
   inkscape:window-x="0"
   inkscape:window-y="0"
   inkscape:window-maximized="0"
   inkscape:current-layer="svg121" />
	<style
   type="text/css"
   id="style2">
	<![CDATA[
		.st1 {fill:url(#grad0-11);stroke:none;stroke-linecap:butt;stroke-width:35.9597}
		.st2 {fill:#003067;stroke:none;stroke-linecap:butt;stroke-width:35.9597}
		.st3 {fill:#50e6ff;stroke:none;stroke-linecap:butt;stroke-width:35.9597}
		.st4 {fill:#ffffff;stroke:#ffffff;stroke-linecap:round;stroke-linejoin:round;stroke-width:0.75}
		.st5 {fill:url(#grad0-31);stroke:none;stroke-linecap:butt;stroke-width:34}
		.st6 {fill:#773adc;stroke:none;stroke-linecap:butt;stroke-width:34}
		.st7 {fill:#f9f9f9;fill-opacity:0.5;stroke:none;stroke-linecap:butt;stroke-width:34}
		.st8 {fill:none;fill-rule:evenodd;font-size:12px;overflow:visible;stroke-linecap:square;stroke-miterlimit:3}
	]]>
	</style>

	<defs
   id="Patterns_And_Gradients">
		<linearGradient
   id="grad0-11"
   x1="-0.00037252621"
   y1="54.611887"
   x2="39.663508"
   y2="54.611887"
   gradientTransform="scale(0.75535427,1.3238821)"
   gradientUnits="userSpaceOnUse">
			<stop
   offset="0"
   stop-color="#949494"
   stop-opacity="1"
   id="stop4" />
			<stop
   offset="0.53"
   stop-color="#a2a2a2"
   stop-opacity="1"
   id="stop6" />
			<stop
   offset="1"
   stop-color="#b3b3b3"
   stop-opacity="1"
   id="stop8" />
		</linearGradient>
		<linearGradient
   id="grad0-31"
   x1="0.075651908"
   y1="84.56128"
   x2="27.791961"
   y2="84.56128"
   gradientTransform="scale(0.89958809,1.1116199)"
   gradientUnits="userSpaceOnUse">
			<stop
   offset="0"
   stop-color="#5e9624"
   stop-opacity="1"
   id="stop11" />
			<stop
   offset="0.18"
   stop-color="#629c25"
   stop-opacity="1"
   id="stop13" />
			<stop
   offset="0.44"
   stop-color="#6dae2a"
   stop-opacity="1"
   id="stop15" />
			<stop
   offset="0.73"
   stop-color="#7fcb30"
   stop-opacity="1"
   id="stop17" />
			<stop
   offset="0.82"
   stop-color="#86d633"
   stop-opacity="1"
   id="stop19" />
		</linearGradient>
	</defs>
	<g
   id="g119"
   transform="translate(-35.959746,-34.1013)">
		<title
   id="title23">Page-1</title>
		<g
   id="group16274-1"
   transform="translate(35.9599,-34.0157)">
			<title
   id="title25">Active Directory Rights Management Server.16274</title>
			<g
   id="group16275-2">
				<title
   id="title27">Page-1</title>
				<g
   id="group16276-3">
					<title
   id="title29">Sheet.16276</title>
					<g
   id="group16277-4"
   transform="translate(0,-2.32733)">
						<title
   id="title31">Sheet.16277</title>
						<g
   id="group16278-5">
							<title
   id="title33">Icon-databases-136.149</title>
							<g
   id="group16279-6">
								<title
   id="title35">path4-5</title>
								<g
   id="group16280-7">
									<title
   id="title37">Sheet.16280</title>
									<g
   id="shape16281-8">
										<title
   id="title39">Sheet.16281</title>
										<path
   d="m 29.96,123.02 a 1.8212,1.76972 90 0 1 -1.73,1.79 H 1.74 A 1.78979,1.73921 90 0 1 0,123.02 V 74.09 A 1.75839,1.70869 90 0 1 1.74,72.3 h 26.49 a 1.78979,1.73921 90 0 1 1.73,1.79 z"
   class="st1"
   id="path41"
   inkscape:connector-curvature="0"
   style="fill:url(#grad0-11);stroke:none;stroke-width:35.95970154;stroke-linecap:butt" />
									</g>
								</g>
							</g>
							<g
   id="group16282-12"
   transform="translate(4.39379,-30.7405)">
								<title
   id="title46">path6-7</title>
								<g
   id="group16283-13">
									<title
   id="title48">Sheet.16283</title>
									<g
   id="shape16284-14">
										<title
   id="title50">Sheet.16284</title>
										<path
   d="m 0,121.45 a 3.3598,3.26483 90 0 1 3.24,-3.34 h 14.94 a 3.3598,3.26483 90 0 1 3.36,3.34 3.3598,3.26483 90 0 1 -3.36,3.36 H 3.24 A 3.3598,3.26483 90 0 1 0,121.45 Z m 0,-9.93 a 3.3598,3.26483 90 0 1 3.24,-3.35 h 14.94 a 3.3598,3.26483 90 0 1 3.36,3.35 3.3598,3.26483 90 0 1 -3.36,3.33 H 3.24 A 3.3598,3.26483 90 0 1 0,111.52 Z"
   class="st2"
   id="path52"
   inkscape:connector-curvature="0"
   style="fill:#003067;stroke:none;stroke-width:35.95970154;stroke-linecap:butt" />
									</g>
								</g>
							</g>
							<g
   id="group16285-16"
   transform="translate(5.61428,-41.7622)">
								<title
   id="title57">circle8-5</title>
								<g
   id="group16286-17">
									<title
   id="title59">Sheet.16286</title>
									<g
   id="shape16287-18">
										<title
   id="title61">Sheet.16287</title>
										<ellipse
   cx="2.1968901"
   cy="122.546"
   rx="2.1968901"
   ry="2.2607999"
   class="st3"
   id="ellipse63"
   style="fill:#50e6ff;stroke:none;stroke-width:35.95970154;stroke-linecap:butt" />
									</g>
								</g>
							</g>
							<g
   id="group16288-20"
   transform="translate(5.61428,-31.8399)">
								<title
   id="title68">circle10-2</title>
								<g
   id="group16289-21">
									<title
   id="title70">Sheet.16289</title>
									<g
   id="shape16290-22">
										<title
   id="title72">Sheet.16290</title>
										<ellipse
   cx="2.1968901"
   cy="122.546"
   rx="2.1968901"
   ry="2.2607999"
   class="st3"
   id="ellipse74"
   style="fill:#50e6ff;stroke:none;stroke-width:35.95970154;stroke-linecap:butt" />
									</g>
								</g>
							</g>
						</g>
					</g>
					<g
   id="group16291-24"
   transform="translate(21.571,-2.10247)">
						<title
   id="title81">Sheet.16291</title>
						<g
   id="shape16292-25">
							<title
   id="title83">Sheet.16292</title>
							<rect
   x="0"
   y="111.157"
   width="16.941601"
   height="13.6492"
   class="st4"
   id="rect85"
   style="fill:#ffffff;stroke:#ffffff;stroke-width:0.75;stroke-linecap:round;stroke-linejoin:round" />
						</g>
					</g>
					<g
   id="group16293-27"
   transform="translate(17.2651)">
						<title
   id="title89">Azure Rights Management</title>
						<g
   id="shape16294-28">
							<title
   id="title91">Sheet.16294</title>
							<path
   d="M 24.37,106.58 H 22.7 V 104.5 C 22.7,101.65 21.66,99.01 20,97.13 18.26,95.18 15.21,94 12.57,94 9.93,94 6.81,95.25 5.14,97.13 3.4,99.01 2.36,101.65 2.36,104.5 v 2.08 H 0.7 c -0.7,0 -0.63,0.56 -0.63,1.33 v 15.57 c 0,0.7 0.55,1.33 1.25,1.33 h 22.42 c 0.7,0 1.26,-0.56 1.26,-1.33 v -15.57 c 0,-0.7 0.06,-1.33 -0.63,-1.33 z m -9.31,11.48 c 0.36,-0.21 0.7,-0.35 1.12,-0.35 1.04,0 1.88,0.84 1.88,1.88 0,1.04 -0.84,1.87 -1.88,1.87 -1.04,0 -1.88,-0.83 -1.88,-1.87 0,-0.07 0,-0.07 0,-0.15 l -4.86,-2.5 c -0.34,0.36 -0.76,0.5 -1.32,0.5 -1.04,0 -1.87,-0.84 -1.87,-1.88 0,-1.05 0.83,-1.88 1.87,-1.88 0.49,0 0.98,0.21 1.26,0.49 l 4.85,-2.51 c 0,0 0,-0.07 0,-0.07 0,-1.04 0.83,-1.88 1.88,-1.88 1.04,0 1.87,0.84 1.87,1.88 0,1.05 -0.83,1.88 -1.87,1.88 -0.41,0 -0.84,-0.14 -1.18,-0.41 l -4.86,2.5 z m 3.13,-11.48 H 6.81 v -2.5 c 0,-1.66 0.55,-2.71 1.53,-3.76 0.96,-1.03 2.84,-1.59 4.23,-1.59 1.39,0 3.19,0.56 4.17,1.59 0.9,1.05 1.52,2.51 1.52,4.18 v 2.08 z"
   class="st5"
   id="path93"
   inkscape:connector-curvature="0"
   style="fill:url(#grad0-31);stroke:none;stroke-width:34;stroke-linecap:butt" />
						</g>
					</g>
					<g
   id="group16295-32"
   transform="translate(21.841,-35.173)">
						<title
   id="title97">Sheet.16295</title>
						<g
   id="group16296-33"
   transform="translate(0.0136334)">
							<title
   id="title99">Sheet.16296</title>
							<g
   id="shape16297-34">
								<title
   id="title101">Sheet.16297</title>
								<path
   d="M 11.75,103.29 0,119.95 l 11.75,4.86 11.75,-4.86 z"
   class="st6"
   id="path103"
   inkscape:connector-curvature="0"
   style="fill:#773adc;stroke:none;stroke-width:34;stroke-linecap:butt" />
							</g>
						</g>
						<g
   id="group16298-36">
							<title
   id="title107">Sheet.16298</title>
							<g
   id="shape16299-37">
								<title
   id="title109">Sheet.16299</title>
								<path
   d="M 11.75,103.29 0,119.95 l 11.75,4.86 z"
   class="st7"
   id="path111"
   inkscape:connector-curvature="0"
   style="fill:#f9f9f9;fill-opacity:0.5;stroke:none;stroke-width:34;stroke-linecap:butt" />
							</g>
						</g>
					</g>
				</g>
			</g>
		</g>
	</g>
</svg>

<?xml version="1.0" encoding="UTF-8" standalone="no"?>
<!DOCTYPE svg PUBLIC "-//W3C//DTD SVG 1.1//EN" "http://www.w3.org/Graphics/SVG/1.1/DTD/svg11.dtd">
<!-- Generated by Microsoft Visio, SVG Export Active Directory Rights Management Server.svg Page-1 -->
<svg xmlns="http://www.w3.org/2000/svg" xmlns:xlink="http://www.w3.org/1999/xlink" xmlns:ev="http://www.w3.org/2001/xml-events"
		width="1.60159in" height="1.73342in" viewBox="0 0 115.314 124.806" xml:space="preserve" color-interpolation-filters="sRGB"
		class="st8">
	<style type="text/css">
	<![CDATA[
		.st1 {fill:url(#grad0-11);stroke:none;stroke-linecap:butt;stroke-width:35.9597}
		.st2 {fill:#003067;stroke:none;stroke-linecap:butt;stroke-width:35.9597}
		.st3 {fill:#50e6ff;stroke:none;stroke-linecap:butt;stroke-width:35.9597}
		.st4 {fill:#ffffff;stroke:#ffffff;stroke-linecap:round;stroke-linejoin:round;stroke-width:0.75}
		.st5 {fill:url(#grad0-31);stroke:none;stroke-linecap:butt;stroke-width:34}
		.st6 {fill:#773adc;stroke:none;stroke-linecap:butt;stroke-width:34}
		.st7 {fill:#f9f9f9;fill-opacity:0.5;stroke:none;stroke-linecap:butt;stroke-width:34}
		.st8 {fill:none;fill-rule:evenodd;font-size:12px;overflow:visible;stroke-linecap:square;stroke-miterlimit:3}
	]]>
	</style>

	<defs id="Patterns_And_Gradients">
		<linearGradient id="grad0-11" x1="0" y1="0" x2="1" y2="0" gradientTransform="rotate(-90 0.5 0.5)">
			<stop offset="0" stop-color="#949494" stop-opacity="1"/>
			<stop offset="0.53" stop-color="#a2a2a2" stop-opacity="1"/>
			<stop offset="1" stop-color="#b3b3b3" stop-opacity="1"/>
		</linearGradient>
		<linearGradient id="grad0-31" x1="0" y1="0" x2="1" y2="0" gradientTransform="rotate(-90 0.5 0.5)">
			<stop offset="0" stop-color="#5e9624" stop-opacity="1"/>
			<stop offset="0.18" stop-color="#629c25" stop-opacity="1"/>
			<stop offset="0.44" stop-color="#6dae2a" stop-opacity="1"/>
			<stop offset="0.73" stop-color="#7fcb30" stop-opacity="1"/>
			<stop offset="0.82" stop-color="#86d633" stop-opacity="1"/>
		</linearGradient>
	</defs>
	<g>
		<title>Page-1</title>
		<g id="group15891-1" transform="translate(35.9599,-34.0157)">
			<title>Active Directory Rights Management Server.15891</title>
			<g id="group15892-2">
				<title>Page-1</title>
				<g id="group15893-3">
					<title>Sheet.15893</title>
					<g id="group15894-4" transform="translate(-2.29816E-13,-2.32733)">
						<title>Sheet.15894</title>
						<g id="group15895-5">
							<title>Icon-databases-136.149</title>
							<g id="group15896-6">
								<title>path4-5</title>
								<g id="group15897-7">
									<title>Sheet.15897</title>
									<g id="shape15898-8">
										<title>Sheet.15898</title>
										<path d="M29.96 123.02 A1.8212 1.76972 90 0 1 28.23 124.81 L1.74 124.81 A1.78979 1.73921
													 90 0 1 -0 123.02 L0 74.09 A1.75839 1.70869 90 0 1 1.74 72.3 L28.23 72.3 A1.78979
													 1.73921 90 0 1 29.96 74.09 L29.96 123.02 Z" class="st1"/>
									</g>
								</g>
							</g>
							<g id="group15899-12" transform="translate(4.39379,-30.7405)">
								<title>path6-7</title>
								<g id="group15900-13">
									<title>Sheet.15900</title>
									<g id="shape15901-14">
										<title>Sheet.15901</title>
										<path d="M-0 121.45 A3.3598 3.26483 90 0 1 3.24 118.11 L18.18 118.11 A3.3598 3.26483 90 0
													 1 21.54 121.45 A3.3598 3.26483 90 0 1 18.18 124.81 L3.24 124.81 A3.3598 3.26483
													 90 0 1 0 121.45 ZM-0 111.52 A3.3598 3.26483 90 0 1 3.24 108.17 L18.18 108.17
													 A3.3598 3.26483 90 0 1 21.54 111.52 A3.3598 3.26483 90 0 1 18.18 114.85 L3.24
													 114.85 A3.3598 3.26483 90 0 1 -0 111.52 Z" class="st2"/>
									</g>
								</g>
							</g>
							<g id="group15902-16" transform="translate(5.61428,-41.7622)">
								<title>circle8-5</title>
								<g id="group15903-17">
									<title>Sheet.15903</title>
									<g id="shape15904-18">
										<title>Sheet.15904</title>
										<ellipse cx="2.19689" cy="122.546" rx="2.19689" ry="2.2608" class="st3"/>
									</g>
								</g>
							</g>
							<g id="group15905-20" transform="translate(5.61428,-31.8399)">
								<title>circle10-2</title>
								<g id="group15906-21">
									<title>Sheet.15906</title>
									<g id="shape15907-22">
										<title>Sheet.15907</title>
										<ellipse cx="2.19689" cy="122.546" rx="2.19689" ry="2.2608" class="st3"/>
									</g>
								</g>
							</g>
						</g>
					</g>
					<g id="group15908-24" transform="translate(21.571,-2.10247)">
						<title>Sheet.15908</title>
						<g id="shape15909-25">
							<title>Sheet.15909</title>
							<rect x="0" y="111.157" width="16.9416" height="13.6492" class="st4"/>
						</g>
					</g>
					<g id="group15910-27" transform="translate(17.2651,0)">
						<title>Azure Rights Management</title>
						<g id="shape15911-28">
							<title>Sheet.15911</title>
							<path d="M24.37 106.58 L22.7 106.58 L22.7 104.5 C22.7 101.65 21.66 99.01 20 97.13 C18.26 95.18 15.21
										 94 12.57 94 C9.93 94 6.81 95.25 5.14 97.13 C3.4 99.01 2.36 101.65 2.36 104.5 L2.36 106.58
										 L0.7 106.58 C0 106.58 0.07 107.14 0.07 107.91 L0.07 123.48 C0.07 124.18 0.62 124.81 1.32
										 124.81 L23.74 124.81 C24.44 124.81 25 124.25 25 123.48 L25 107.91 C25 107.21 25.06 106.58
										 24.37 106.58 ZM15.06 118.06 C15.42 117.85 15.76 117.71 16.18 117.71 C17.22 117.71 18.06
										 118.55 18.06 119.59 C18.06 120.63 17.22 121.46 16.18 121.46 C15.14 121.46 14.3 120.63 14.3
										 119.59 C14.3 119.52 14.3 119.52 14.3 119.44 L9.44 116.94 C9.1 117.3 8.68 117.44 8.12 117.44
										 C7.08 117.44 6.25 116.6 6.25 115.56 C6.25 114.51 7.08 113.68 8.12 113.68 C8.61 113.68 9.1
										 113.89 9.38 114.17 L14.23 111.66 C14.23 111.66 14.23 111.59 14.23 111.59 C14.23 110.55 15.06
										 109.71 16.11 109.71 C17.15 109.71 17.98 110.55 17.98 111.59 C17.98 112.64 17.15 113.47 16.11
										 113.47 C15.7 113.47 15.27 113.33 14.93 113.06 L10.07 115.56 L15.06 118.06 ZM18.19 106.58
										 L6.81 106.58 L6.81 104.08 C6.81 102.42 7.36 101.37 8.34 100.32 C9.3 99.29 11.18 98.73 12.57
										 98.73 C13.96 98.73 15.76 99.29 16.74 100.32 C17.64 101.37 18.26 102.83 18.26 104.5 L18.26
										 106.58 L18.19 106.58 Z" class="st5"/>
						</g>
					</g>
					<g id="group15912-32" transform="translate(21.841,-35.173)">
						<title>Sheet.15912</title>
						<g id="group15913-33" transform="translate(0.0136334,0)">
							<title>Sheet.15913</title>
							<g id="shape15914-34">
								<title>Sheet.15914</title>
								<path d="M11.75 103.29 L0 119.95 L11.75 124.81 L23.5 119.95 L11.75 103.29 Z" class="st6"/>
							</g>
						</g>
						<g id="group15915-36">
							<title>Sheet.15915</title>
							<g id="shape15916-37">
								<title>Sheet.15916</title>
								<path d="M11.75 103.29 L0 119.95 L11.75 124.81 L11.75 103.29 Z" class="st7"/>
							</g>
						</g>
					</g>
				</g>
			</g>
		</g>
	</g>
</svg>
